X:7
T:No.51 March
C:march
M:4/4
L:1/8
K:G
A2e2e2dB|d2ef gea2|A2e2e2dB|g2edB2AG|
A2e2e2dB|d2ef gea2|gedBg2ed|B2A2A2BG:|
e2a2a2ge|d2ef gea2|e2a2a2ge|dgedB2A2|
e2a2a2ge|d2ef gea2|gedBg2ed|B2A2A2BG:|
A2e2e2dB|d2ef gea2|A2e2e2dB|g2edB2AG|
A2e2e2dB|d2ef gea2|gedBe2fd|egdBA4||
